X: 24519
T: Lucy Farr's
R: barndance
M: 4/4
K: Amajor
A2 A2 A2 A2|A>Bc>A F2 E2|c2 c2 c2 c2|c>de>c B4||
c>de>c A2 A2|A>B (3cBA F2 =F2|E>FA>B c>ee>c|c2 =c2 B4|
c>de>c A4|A>Bc>A F4|E>FA<B c>ee>c|B2 A2 A4||

